packages/foundations/assets/icons/functional/images/transportation/electric_scooter_32.svg

<svg width="32" height="32" viewBox="0 0 32 32" fill="none" xmlns="http://www.w3.org/2000/svg">
<g clip-path="url(#clip0_187_969)">
<path fill-rule="evenodd" clip-rule="evenodd" d="M26.7958 5.14665L24.6346 5.59559C23.3585 5.86067 22.5098 7.05677 22.6598 8.33287L24.12 16.2255C22.4577 17.1885 21.1808 18.1741 20.2546 19.2105C19.4224 20.1416 19.0014 21.3736 18.9664 22.8751L8.96457 22.8757C8.72202 21.1794 7.26352 19.8757 5.5 19.8757C3.56743 19.8757 2 21.4427 2 23.3757C2 25.3087 3.56743 26.8757 5.5 26.8757C6.896 26.8757 8.10086 26.0588 8.66274 24.8769C16.221 24.8769 20.0002 24.8757 20.0002 24.8757C20.3099 24.8769 21.0359 24.6382 20.9964 23.7883C20.8651 22.2936 21.1307 21.2314 21.7458 20.5432C22.4103 19.7997 23.3308 19.0582 24.5078 18.3247L24.8715 20.277C23.7588 20.863 23 22.0308 23 23.3757C23 25.3087 24.5674 26.8757 26.5 26.8757C28.4333 26.8757 30 25.309 30 23.3757C30 21.5553 28.6109 20.0599 26.8346 19.8915L24.6515 8.13461C24.6073 7.89689 24.7393 7.66657 24.9562 7.57947L27.2025 7.10484C27.7433 6.99252 28.0938 6.40553 27.9713 5.89914C27.8488 5.39274 27.3582 5.02847 26.7958 5.14665ZM26.5 21.8757C27.3287 21.8757 28 22.547 28 23.3757C28 24.2045 27.3287 24.8757 26.5 24.8757C25.6719 24.8757 25 24.2041 25 23.3757C25 22.5474 25.6719 21.8757 26.5 21.8757ZM5.5 21.8757C6.32872 21.8757 7 22.547 7 23.3757C7 24.2045 6.32872 24.8757 5.5 24.8757C4.67188 24.8757 4 24.2041 4 23.3757C4 22.5474 4.67188 21.8757 5.5 21.8757ZM4.00062 15.8758C3.44833 15.8758 3.00062 16.3235 3.00062 16.8758C3.00062 17.4281 3.44833 17.8758 4.00062 17.8758C7.04329 17.8758 8.34344 18.4628 9.07702 20.2547C9.28627 20.7658 9.87023 21.0105 10.3813 20.8012C10.8925 20.592 11.1372 20.008 10.9279 19.4969C9.82594 16.8052 7.76747 15.8758 4.00062 15.8758Z" fill="#1A1C1F"/>
</g>
<defs>
<clipPath id="clip0_187_969">
<rect width="32" height="32" fill="white"/>
</clipPath>
</defs>
</svg>

<svg xmlns="http://www.w3.org/2000/svg" width="32" height="32" fill="none"><g clip-path="url(#a)"><path fill="#1A1C1F" fill-rule="evenodd" d="m26.796 5.147-2.161.449a2.5 2.5 0 0 0-1.975 2.737l1.46 7.893c-1.662.963-2.94 1.948-3.865 2.985-.833.93-1.254 2.163-1.289 3.664H8.965a3.5 3.5 0 1 0-.302 2.002L20 24.876c.31 0 1.036-.238.996-1.088-.13-1.494.135-2.557.75-3.245q.996-1.116 2.762-2.218l.364 1.952a3.5 3.5 0 1 0 1.963-.386L24.65 8.136a.5.5 0 0 1 .305-.556l2.247-.474c.54-.112.89-.7.768-1.206a.994.994 0 0 0-1.175-.752M26.5 21.876a1.5 1.5 0 1 1 0 2.999 1.5 1.5 0 0 1 0-3m-21 0a1.5 1.5 0 1 1 0 2.999 1.5 1.5 0 0 1 0-3m-1.5-6a1 1 0 1 0 0 2c3.043 0 4.343.587 5.077 2.379a1 1 0 1 0 1.85-.758c-1.101-2.692-3.16-3.621-6.926-3.621" clip-rule="evenodd"/></g><defs><clipPath id="a"><path fill="#fff" d="M0 0h32v32H0z"/></clipPath></defs></svg>
